X: 20172
Q: "Slow and with feeling."
M: C
L: 1/8
K: A
e |\
e>dcB A>cd<f | e<cB^G A2 A, :|\
E |\
E>CB,D C<A,A,>B, | CDB,G FDE^G |
|: (a/b/) |\
c'>ag<e d<BGE | a>c'ba g>^feg |\
f>edB c<eGE | e<cB^G A2 A, :|


